X:1
T:Io son ferito
T:Gasparo Fiorino c. 1530 - c. 1675
T:Io son ferito
T:Villanello a 3 voci
T:(C) Wim Looyestijn - 2018. May be freely copied for non-commercial use.
C:Gasparo Fiorino
C:c. 1530 - c. 1675
Z:(C) Wim Looyestijn - 2018. May be freely copied for non-commercial use.
%%score [ 1 2 3 ]
L:1/8
Q:1/4=160
M:4/4
K:Bb
V:1 treble nm="Soprano" snm="S"
V:2 treble nm="Alto" snm="A"
V:3 bass nm="Basso" snm="B"
V:1
 d8 | e4 d4 | B4 c4 | d2 B2 c4 | G2 B4 F2 | A6 GF | =E2 D2 E4 | D2 z2 A4 | B4 A4 | G2 F2 G4 | %10
w: 1. Io|son fe-|ri- to e|fug- go e fug-|go e fugg' o-|gni * *|* con- for-|to. A-|mor, co-|stei m'ha mor-|
w: 2. Io|mo- ro,|e nel|mo- rir mo-|ro, mo- ro,|mo- * *|ro con- ten-|to. Tant'|è 'l pia-|cer ch' io sen-|
 F4 z2 G2 | G6 D2 | =E2 F2 D4 | C4 z2 F2 | G2 A2 B2 c2 | A4 B2 c2- | cBAG A4 | G8 |] %18
w: to. A-|mor, co-|stei m'ha mor-|to. Pun-|gi pur lei che|mi con- su-|* * mi a tor-|to.|
w: to. Tant'|è 'l pia-|cer ch' io sen-|to. A-|mor, poi che mo-|ren- do es-|* * co di sten-|to.|
V:2
 B8 | G4 F4 | G8 | F6 =E2 | G4 D2 F2- | F2 C2 F2 =E2 | ^C2 D4 C2 | D2 z2 F4 | D4 F4 | =E2 F4 E2 | %10
w: 1. Io|son fe-|ri-|to e fug-|go e fug- go e|* fugg' o- gni|con- for- *|to. A-|mor, co-|stei m'ha mor-|
w: 2. Io|mo- ro,|e|nel mo-|rir mo- ro,|* mo- ro, mo-|ro con- ten-|to. Tant'|è 'l pia-|cer ch' io sen-|
 F4 z2 =E2 | =E6 D2 | C2 C4 =B,2 | C4 z2 D2 | E2 F2 G2 G2 | ^F4 G2 ED | EF G4 ^F2 | G8 |] %18
w: to. A-|mor, co-|stei m'ha mor-|to. Pun-|gi pur lei che|mi con- su- *|mi * a tor-|to.|
w: to. Tant'|è 'l pia-|cer ch' io sen-|to. A-|mor, poi che mo-|ren- do es- *|co * di sten-|to.|
V:3
 B,8 | C4 D4 | E8 | D4 A,2 C2- | C2 G,2 B,4 | F,6 G,2 | A,2 B,2 A,4 | D,2 z2 F,4 | G,4 F,4 | %9
w: 1. Io|son fe-|ri-|to e fug- go e|* fug- go e|fugg' o-|gni con- for-|to. A-|mor, co-|
w: 2. Io|mo- ro,|e|nel mo- rir|* mo- ro,|mo- ro|con- * ten-|to. Tant'|è 'l pia-|
 C2 D2 C4 | F,4 z2 C2 | C6 G,2 | A,2 F,2 G,4 | C,4 z2 B,2 | C2 D2 E2 C2 | D4 E2 C2 | C2 E2 D4 | %17
w: stei m'ha mor-|to. A-|mor, co-|stei m'ha mor-|to. Pun-|gi pur lei che|mi con- su-|mi a tor-|
w: cer ch' io sen-|to. Tant'|è 'l pia-|cer ch' io sen-|to. A-|mor, poi che mo-|ren- do es-|co di sten-|
 G,8 |] %18
w: to.|
w: to.|

